X:1
T:The Art of Preluding
T:The Art of Preluding
T:Op.300  N°24
T:Carl Czerny
C:Carl Czerny
%%score { ( 1 2 ) | ( 3 4 ) }
L:1/8
Q:1/4=52
M:4/4
K:F
V:1 bass nm="Piano" snm="Pno."
V:2 bass 
V:3 bass 
V:4 bass 
V:1
"^Lento e serioso" z2 (3F,A,^C (3DA,F (3DA,F, |[K:treble] z2 (3G,B,^D (3EB,G (3EB,G, | %2
 z2 (3A,_EG (3^FEA (3FEA, | z2 (3DG^F (3AG^c"_cresc." (3dBG | z2 (3FA^c (3dAf (3dAF | %5
!f! z2!>(! (3F=Bd (3fd=b (3fed!>)! |!p! z2!<(! (3(ad'f' (3a'!>(!e'!<)!f' (3^c'd'a!>)! | %7
"_dim." (3b^ga (3ef^c"_rall." (3d^GB (3AFD) | (^C2 [CG]4[K:bass]!pp! [G,^C]2- | %9
 [G,C]4 [F,D]2) z2 |] %10
V:2
 x2 F,6 |[K:treble] x2 G,6 | x2 C6 | x2 D6 | x2 F6 | x2 F2 x4 | x8 | x8 | x2 (B,2 A,2)[K:bass] x2 | %9
 x8 |] %10
V:3
"^legato"!pp! (3D,,F,,A,, D,6 | (3D,,G,,B,, D,6 | (3C,,_E,,A,, C,6 | (3B,,,D,,G,, B,,6 | %4
 (3A,,,D,,F,, A,,6 | (3^G,,,=B,,,D,, ^G,,6 | (3A,,,-D,,-F,,- [D,,F,,A,,]6- | [A,,,D,,F,,A,,]6 z2 | %8
 A,,,4 A,,4- | ([D,,-A,,-E,]4 [D,,A,,D,]2) z2 |] %10
V:4
 D,,8 | D,,8 | C,,8 | B,,,8 | A,,,8 | ^G,,,8 | A,,,2 A,,,6- | A,,,6 x2 | A,,,8 | x8 |] %10

